X:215
T:The new-mown meadows
T:The threepenny bit
R:Reel
O:Ireland
B:Joyce, P. W.; "Old Irish Folk Music and Songs"
B:O'Neill's 1367
S:O'Neill's 1367
Z:Transcription:Trish O'Neil, minor arr., chords:Mike Long
M:C|
L:1/8
K:G
"Dm"AD~D2 EDEG|"Am"AcBG AGEG|"D"AD~D2 EDEF|"C"G2AG EGG2|\
"Dm"AD~D2 EDEG|
"Am"AcBG AGEG|"C"~c2cA "G"~B2BA|"C"GBAG EGG2:|\
|:"G"Bddf "D"(3(efg) dB|"C"GABG AGEG|
"G"Bd~d2 "D"efdB|"C"G2AG EGG2|\
"G"Bd~d2 "D"(3(efg) dB|"C"cABG AGEG|"C"~c2cA "G"~B2BA|"C"GBAG EGG2:|
